X:1
T:James Gibb editions
T:Psalm 128 (Becker) - Schütz
%%score [ ( 1 2 ) ( 3 4 ) ]
L:1/8
Q:1/4=98
M:3/4
K:G
V:1 treble nm="Soprano Alto"
V:2 treble 
V:3 bass nm="Tenor Bass"
V:4 bass 
V:1
"^Cornelius Becker\n(1561-1604)""^Psalm 128, SWV 233""^Heinrich Schütz\n(1585-1672)" B2 e2 d2 | %1
w: ~Wohl dem, der|
 c4 B2 | A4 G2 | F6 | F2 G2 A2 | (B3 c d2) | c2 B2 A2 | G6 | A2 A2 A2 | d4 c2 | B2 A4 | B6 | %12
w: in Got-|tes- furcht|steht|und auch auf|sei\- * *|nem We- ge|geht,|||||
 G2 G2 A2 | B4 A2 | G2 F4 | E12 |] %16
w: ||||
V:2
 G2 B2 B2 | G4 G2 | E4 E2 | ^D6 | ^D2 E2 F2 | G6 | G2 G2 F2 | G6 | F2 F2 E2 | D4 E2 | G2 (F2 E2) | %11
w: ||||||||dein ei- gen|Hand dich|näh- ren *|
 F6 | E2 E2 E2 | G4 E2 | E2 ^D4 | E12 |] %16
w: soll,|so lebst du|recht und|geht dirs|wohl.|
V:3
 E2 G2 F2 | E4 D2 | C4 B,2 | B,6 | B,2 B,2 D2 | (D3 C B,2) | E2 D2 D2 | D6 | %8
"^2. Dein Weib wird in dein'm Hause sein\nwie ein Reben voll Trauben fein,\nund deine Kinder um dein'n Tisch\nwie Ölpflanzen gesund und frisch.\n\n3. Sieh, so reich Segen hängt dem an,\nwenn in Gottesfurcht lebt ein Mann,\nvon ihm läßt der alt Fluch und Zorn,\nden Menschenkindern angebor'n.\n\n4. Aus Zion wird Gott segnen dich,\ndaß du wirst schauen stetiglich\nDas Glück der Stadt Jerusalem,\nvor Gott in Gnaden angenehm." D2 D2 A,2 | %9
 B,4 C2 | D2 E4 | ^D6 | E2 C2 C2 | D4 C2 | B,2 B,4 | B,12 |] %16
V:4
 E,2 E,2 B,,2 | C,4 G,,2 | A,,4 E,2 | B,,6 | B,,2 E,2 D,2 | G,6 | C,2 G,,2 D,2 | G,,6 | %8
 D,2 D,2 C,2 | B,,4 A,,2 | G,,2 C,4 | B,,6 | C,2 C,2 A,,2 | G,,4 A,,2 | E,2 B,,4 | E,12 |] %16

